X:3
T:Statia Donelly's
R:jig
O:Ireland - Éire
Z:anamnese:caramail.com
S:Eric Forgeot <eforgeot:yahoo.fr> abcusers 2003-2-9
M:6/8
L:1/8
%Q:3/80
K:C bass
E |: AGA cBA | ede ged | ege ede | cec dBG |
     AGA cBA | ede ged | edc BAB | cAA A2 E :|
  |: A2B cBA | c2d ecA | G^FG dBG | dBG BAG |
     A2B cBA | GBA GED | EDC B,A,B,|1 CA,A,A,2 E :| CA,A,A,2 z ||
